static/assets/template/assets/img/icons/essential/detailed/Punching_Bag.svg

<svg height="144" viewBox="0 0 89 144" width="89" xmlns="http://www.w3.org/2000/svg"><g fill="none" fill-rule="evenodd" transform="translate(1 2)"><path d="m74 .2h-51.4c-2 0-3.6 1.6-3.6 3.6v128.7h-14.9c-2 0-3.6 1.6-3.6 3.6s1.6 3.6 3.6 3.6h36.1c2 0 3.6-1.6 3.6-3.6s-1.6-3.6-3.6-3.6h-13.9v-125.1h47.8c2 0 3.6-1.6 3.6-3.6s-1.7-3.6-3.7-3.6z" fill-rule="nonzero"/><path d="m74 .2h-51.4c-2 0-3.6 1.6-3.6 3.6v128.7h-14.9c-2 0-3.6 1.6-3.6 3.6s1.6 3.6 3.6 3.6h36.1c2 0 3.6-1.6 3.6-3.6s-1.6-3.6-3.6-3.6h-13.9v-125.1h47.8c2 0 3.6-1.6 3.6-3.6s-1.7-3.6-3.7-3.6z" fill-rule="nonzero"/><path d="m76.9 118.2h-19.9c-4.9 0-8.9-4-8.9-8.9v-69.1c0-6.2 5-11.2 11.2-11.2h15.3c6.2 0 11.2 5 11.2 11.2v69.1c0 4.9-4 8.9-8.9 8.9z" fill-rule="nonzero"/><path d="m77.1 118.2h-19.9c-4.8 0-8.6-3.9-8.6-8.6v-66c0-6 4.9-10.8 10.8-10.8h15.4c6 0 10.8 4.9 10.8 10.8v66c.2 4.7-3.7 8.6-8.5 8.6z" fill-rule="nonzero"/><path d="m85.7 110.3c-.4 4.4-4.1 7.8-8.7 7.8h-19.6c-4.8 0-8.8-3.8-8.8-8.5v-66.2c0-5 3.5-9.1 8.2-10.4l1.4-.2.5-.1-1.9 7.2v70.4z" fill="#abcfff" fill-rule="nonzero"/><g stroke-linecap="round" stroke-linejoin="round" stroke-width="3"><path d="m33.8.2h-.6"/><path d="m28.8.2h-6.1c-2 0-3.6 1.6-3.6 3.6v128.7h-14.9c-2 0-3.6 1.6-3.6 3.6s1.6 3.6 3.6 3.6h36.1c2 0 3.6-1.6 3.6-3.6s-1.6-3.6-3.6-3.6h-13.9v-125.1h47.8c2 0 3.6-1.6 3.6-3.6s-1.6-3.6-3.6-3.6h-34.8"/><path d="m44.7 7.4-18.4 18.4"/><path d="m48.1 40.2c0-6.2 5-11.2 11.2-11.2h15.3c6.2 0 11.2 5 11.2 11.2v69.1c0 4.9-4 8.9-8.9 8.9h-19.9c-4.9 0-8.9-4-8.9-8.9v-51.3"/><path d="m48.1 46.2v-.2"/><path d="m57 101.1v-64c0-4.5 3.6-8.1 8.1-8.1h3.6c4.5 0 8.1 3.6 8.1 8.1v74.6c0 3.6-2.9 6.4-6.4 6.4h-2.7"/><path d="m67.7 118.2h-4.2c-3.6 0-6.4-2.9-6.4-6.4v-1.9"/><path d="m56.3 29.4 10.6-21.5 10.7 21.5"/><path d="m66.9 7.9v21.1"/><path d="m48.1 39.9h37.7"/><path d="m48.1 109.8h37.6"/></g></g></svg>

<?xml version="1.0" encoding="UTF-8"?>
<svg width="89px" height="144px" viewBox="0 0 89 144" version="1.1" xmlns="http://www.w3.org/2000/svg" xmlns:xlink="http://www.w3.org/1999/xlink">
    <!-- Generator: Sketch 51.2 (57519) - http://www.bohemiancoding.com/sketch -->
    <title>Punching_Bag</title>
    <desc>Created with Sketch.</desc>
    <defs></defs>
    <g id="Page-1" stroke="none" stroke-width="1" fill="none" fill-rule="evenodd">
        <g id="Punching_Bag" transform="translate(1.000000, 2.000000)">
            <path d="M74,0.2 L22.6,0.2 C20.6,0.2 19,1.8 19,3.8 L19,132.5 L4.1,132.5 C2.1,132.5 0.5,134.1 0.5,136.1 C0.5,138.1 2.1,139.7 4.1,139.7 L40.2,139.7 C42.2,139.7 43.8,138.1 43.8,136.1 C43.8,134.1 42.2,132.5 40.2,132.5 L26.3,132.5 L26.3,7.4 L74.1,7.4 C76.1,7.4 77.7,5.8 77.7,3.8 C77.7,1.8 76,0.2 74,0.2 Z" id="Shape" class="fill-neutral" fill-rule="nonzero"></path>
            <path d="M74,0.2 L22.6,0.2 C20.6,0.2 19,1.8 19,3.8 L19,132.5 L4.1,132.5 C2.1,132.5 0.5,134.1 0.5,136.1 C0.5,138.1 2.1,139.7 4.1,139.7 L40.2,139.7 C42.2,139.7 43.8,138.1 43.8,136.1 C43.8,134.1 42.2,132.5 40.2,132.5 L26.3,132.5 L26.3,7.4 L74.1,7.4 C76.1,7.4 77.7,5.8 77.7,3.8 C77.7,1.8 76,0.2 74,0.2 Z" id="Shape" class="fill-primary-100" fill-rule="nonzero"></path>
            <path d="M76.9,118.2 L57,118.2 C52.1,118.2 48.1,114.2 48.1,109.3 L48.1,40.2 C48.1,34 53.1,29 59.3,29 L74.6,29 C80.8,29 85.8,34 85.8,40.2 L85.8,109.3 C85.8,114.2 81.8,118.2 76.9,118.2 Z" id="Shape" class="fill-neutral" fill-rule="nonzero"></path>
            <path d="M77.1,118.2 L57.2,118.2 C52.4,118.2 48.6,114.3 48.6,109.6 L48.6,43.6 C48.6,37.6 53.5,32.8 59.4,32.8 L74.8,32.8 C80.8,32.8 85.6,37.7 85.6,43.6 L85.6,109.6 C85.8,114.3 81.9,118.2 77.1,118.2 Z" id="Shape" class="fill-primary-100" fill-rule="nonzero"></path>
            <path d="M85.7,110.3 C85.3,114.7 81.6,118.1 77,118.1 L57.4,118.1 C52.6,118.1 48.6,114.3 48.6,109.6 L48.6,43.4 C48.6,38.4 52.1,34.3 56.8,33 L58.2,32.8 L58.7,32.7 L56.8,39.9 L56.8,110.3 L85.7,110.3 Z" id="Shape" fill="#ABCFFF" fill-rule="nonzero"></path>
            <path d="M33.8,0.2 L33.2,0.2" id="Shape" class="stroke-primary" stroke-width="3" stroke-linecap="round" stroke-linejoin="round"></path>
            <path d="M28.8,0.2 L22.7,0.2 C20.7,0.2 19.1,1.8 19.1,3.8 L19.1,132.5 L4.2,132.5 C2.2,132.5 0.6,134.1 0.6,136.1 C0.6,138.1 2.2,139.7 4.2,139.7 L40.3,139.7 C42.3,139.7 43.9,138.1 43.9,136.1 C43.9,134.1 42.3,132.5 40.3,132.5 L26.4,132.5 L26.4,7.4 L74.2,7.4 C76.2,7.4 77.8,5.8 77.8,3.8 C77.8,1.8 76.2,0.2 74.2,0.2 L39.4,0.2" id="Shape" class="stroke-primary" stroke-width="3" stroke-linecap="round" stroke-linejoin="round"></path>
            <path d="M44.7,7.4 L26.3,25.8" id="Shape" class="stroke-primary" stroke-width="3" stroke-linecap="round" stroke-linejoin="round"></path>
            <path d="M48.1,40.2 C48.1,34 53.1,29 59.3,29 L74.6,29 C80.8,29 85.8,34 85.8,40.2 L85.8,109.3 C85.8,114.2 81.8,118.2 76.9,118.2 L57,118.2 C52.1,118.2 48.1,114.2 48.1,109.3 L48.1,58" id="Shape" class="stroke-primary" stroke-width="3" stroke-linecap="round" stroke-linejoin="round"></path>
            <path d="M48.1,46.2 L48.1,46" id="Shape" class="stroke-primary" stroke-width="3" stroke-linecap="round" stroke-linejoin="round"></path>
            <path d="M57,101.1 L57,37.1 C57,32.6 60.6,29 65.1,29 L68.7,29 C73.2,29 76.8,32.6 76.8,37.1 L76.8,111.7 C76.8,115.3 73.9,118.1 70.4,118.1 L67.7,118.1" id="Shape" class="stroke-primary" stroke-width="3" stroke-linecap="round" stroke-linejoin="round"></path>
            <path d="M67.7,118.2 L63.5,118.2 C59.9,118.2 57.1,115.3 57.1,111.8 L57.1,109.9" id="Shape" class="stroke-primary" stroke-width="3" stroke-linecap="round" stroke-linejoin="round"></path>
            <polyline id="Shape" class="stroke-primary" stroke-width="3" stroke-linecap="round" stroke-linejoin="round" points="56.3 29.4 66.9 7.9 77.6 29.4"></polyline>
            <path d="M66.9,7.9 L66.9,29" id="Shape" class="stroke-primary" stroke-width="3" stroke-linecap="round" stroke-linejoin="round"></path>
            <path d="M48.1,39.9 L85.8,39.9" id="Shape" class="stroke-primary" stroke-width="3" stroke-linecap="round" stroke-linejoin="round"></path>
            <path d="M48.1,109.8 L85.7,109.8" id="Shape" class="stroke-primary" stroke-width="3" stroke-linecap="round" stroke-linejoin="round"></path>
        </g>
    </g>
</svg>
